X:37
T:Tent and Brandy
M:C|
L:1/8
B:Thompson's Compleat Collection of 200 Favourite Country Dances, vol. 1 (London, 1757)
Z:Transcribed and edited by Fynnian Titford-Mock, 2007
Z:abc's:AK/Fiddler's Companion
K:Bb
f3g AB/c/ B2|{c/d/}e3 d/c/ dcBb|caBg AfGe|dc/B/ AB c2F2:|
|:f f2 f2 f2 f|f_agf ed c2|e e2 e2  e2 e|egfe dcBa|bedc B4:|

